package/converter/svg/duotone/square-parking.svg

<svg xmlns="http://www.w3.org/2000/svg" viewBox="0 0 448 512"><!-- Font Awesome Pro 6.0.0-alpha2 by @fontawesome - https://fontawesome.com License - https://fontawesome.com/license (Commercial License) --><defs><style>.fa-secondary{opacity:.4}</style></defs><path d="M384 32H64C28.654 32 0 60.654 0 96V416C0 451.346 28.654 480 64 480H384C419.348 480 448 451.346 448 416V96C448 60.654 419.348 32 384 32ZM240 320H192V352C192 369.688 177.688 384 160 384S128 369.688 128 352V160C128 142.312 142.312 128 160 128H240C292.938 128 336 171.062 336 224S292.938 320 240 320ZM240 192H192V256H240C257.656 256 272 241.656 272 224S257.656 192 240 192Z" class="fa-secondary"/><path d="M240 128H160C142.312 128 128 142.312 128 160V352C128 369.688 142.312 384 160 384S192 369.688 192 352V320H240C292.938 320 336 276.938 336 224S292.938 128 240 128ZM240 256H192V192H240C257.656 192 272 206.344 272 224S257.656 256 240 256Z" class="fa-primary"/></svg>

<svg xmlns="http://www.w3.org/2000/svg" viewBox="0 0 448 512"><!--! Font Awesome Pro 6.6.0 by @fontawesome - https://fontawesome.com License - https://fontawesome.com/license (Commercial License) Copyright 2024 Fonticons, Inc. --><defs><style>.fa-secondary{opacity:.4}</style></defs><path class="fa-secondary" d="M0 96L0 416c0 35.3 28.7 64 64 64l320 0c35.3 0 64-28.7 64-64l0-320c0-35.3-28.7-64-64-64L64 32C28.7 32 0 60.7 0 96zm128 72c0-22.1 17.9-40 40-40l72 0c53 0 96 43 96 96s-43 96-96 96l-48 0 0 32c0 17.7-14.3 32-32 32s-32-14.3-32-32l0-64 0-120zm64 24l0 64 48 0c17.7 0 32-14.3 32-32s-14.3-32-32-32l-48 0z"/><path class="fa-primary" d="M192 192l0 64 48 0c17.7 0 32-14.3 32-32s-14.3-32-32-32l-48 0zm144 32c0 53-43 96-96 96l-48 0 0 32c0 17.7-14.3 32-32 32s-32-14.3-32-32l0-64 0-120c0-22.1 17.9-40 40-40l72 0c53 0 96 43 96 96z"/></svg>
